packages/match-icons/product/svg/add-ons.svg

<svg fill="none" height="32" viewBox="0 0 32 32" width="32" xmlns="http://www.w3.org/2000/svg"><g fill="#394762"><path d="m12.6 29.68c-.4207-.0031-.8336-.1132-1.2-.32l-8-4.65c-.39638-.2265-.72556-.5541-.95395-.9493-.22839-.3953-.3478-.8441-.34605-1.3007v-13.14996c-.00175-.45652.11766-.90533.34605-1.30062s.55757-.7229.95395-.94939l11.35-6.579995c.3959-.226258.844-.345269 1.3-.345269s.9041.119011 1.3.345269l8.13 4.699995c.3658.20906.6698.51109.8812.87549.2115.3644.3229.77821.3229 1.19951 0 .42131-.1114.83512-.3229 1.19952-.2114.3644-.5154.66643-.8812.87549l-8.48 4.89996c-.6089.3516-1.1145.8575-1.4656 1.4667s-.5354 1.3002-.5344 2.0033v9.58c.0013.4218-.109.8364-.3198 1.2017s-.5144.6683-.8802.8783c-.3664.2068-.7793.3169-1.2.32zm3.45-27.54997c-.1052.00035-.2086.02791-.3.08l-11.39 6.58001c-.09268.05106-.16963.1265-.22251.21816s-.07968.19604-.07749.30184v13.14996c-.00007.1054.02763.209.08029.3003.05267.0912.12844.167.21971.2197l8 4.64c.0587.0409.1285.0628.2.0628s.1413-.0219.2-.0628c.0628-.031.1152-.0797.1507-.1401s.0527-.1299.0493-.1999v-9.58c-.0007-1.0538.2762-2.0893.8029-3.0021.5266-.9129 1.2844-1.6709 2.1971-2.1979l8.48-4.89997c.062-.03203.1137-.08096.1491-.14112s.053-.12911.0509-.19887c.0028-.07123-.0144-.14182-.0498-.20371-.0353-.06189-.0874-.11259-.1502-.1463l-8.13-4.7c-.0803-.04416-.1688-.07139-.26-.08z"/><path d="m19.4 29.7301c-.6365 0-1.247-.2529-1.6971-.703-.45-.45-.7029-1.0605-.7029-1.697v-9.33c.0013-.4559.122-.9035.3501-1.2983s.5556-.7229.9499-.9517l8.14-4.7c.3668-.2025.7803-.3055 1.1992-.2987.419.0069.8288.1232 1.1888.3376.3601.2144.6577.5193.8633.8844s.312.7777.3087 1.1967v9.29c-.0003.4561-.1206.9041-.3488 1.299-.2281.395-.5562.7229-.9512.951l-8.14 4.7c-.3527.2047-.7522.3149-1.16.32zm8.24-17c-.0699-.0016-.139.0157-.2.05l-8.14 4.7c-.0913.0527-.167.1285-.2197.2198s-.0804.1948-.0803.3002v9.29c.0004.0706.019.14.054.2013.0351.0613.0853.1125.146.1487.0608.0351.1298.0536.2.0536s.1392-.0185.2-.0536l8.14-4.64c.0899-.0542.1647-.1303.2171-.2213.0525-.0909.081-.1937.0829-.2987v-9.31c-.0004-.0706-.019-.14-.054-.2013-.0351-.0613-.0853-.1125-.146-.1487-.0628-.0296-.1307-.0466-.2-.05z"/></g></svg>

<svg width="32" height="32" viewBox="0 0 32 32" fill="none" xmlns="http://www.w3.org/2000/svg">
<path d="M12.6 29.68C12.1793 29.6769 11.7664 29.5668 11.4 29.36L3.4 24.71C3.00362 24.4835 2.67444 24.1559 2.44605 23.7607C2.21766 23.3654 2.09825 22.9166 2.1 22.46V9.31004C2.09825 8.85352 2.21766 8.40471 2.44605 8.00942C2.67444 7.61413 3.00362 7.28652 3.4 7.06003L14.75 0.480035C15.1459 0.253777 15.594 0.134766 16.05 0.134766C16.506 0.134766 16.9541 0.253777 17.35 0.480035L25.48 5.18003C25.8458 5.38909 26.1498 5.69112 26.3612 6.05552C26.5727 6.41992 26.6841 6.83373 26.6841 7.25503C26.6841 7.67634 26.5727 8.09015 26.3612 8.45455C26.1498 8.81895 25.8458 9.12098 25.48 9.33004L17 14.23C16.3911 14.5816 15.8855 15.0875 15.5344 15.6967C15.1833 16.3059 14.999 16.9969 15 17.7V27.28C15.0013 27.7018 14.891 28.1164 14.6802 28.4817C14.4694 28.847 14.1658 29.15 13.8 29.36C13.4336 29.5668 13.0207 29.6769 12.6 29.68V29.68ZM16.05 2.13003C15.9448 2.13038 15.8414 2.15794 15.75 2.21003L4.36 8.79004C4.26732 8.8411 4.19037 8.91654 4.13749 9.0082C4.08461 9.09986 4.05781 9.20424 4.06 9.31004V22.46C4.05993 22.5654 4.08763 22.669 4.14029 22.7603C4.19296 22.8515 4.26873 22.9273 4.36 22.98L12.36 27.62C12.4187 27.6609 12.4885 27.6828 12.56 27.6828C12.6315 27.6828 12.7013 27.6609 12.76 27.62C12.8228 27.589 12.8752 27.5403 12.9107 27.4799C12.9462 27.4195 12.9634 27.35 12.96 27.28V17.7C12.9593 16.6462 13.2362 15.6107 13.7629 14.6979C14.2895 13.785 15.0473 13.027 15.96 12.5L24.44 7.60003C24.502 7.568 24.5537 7.51907 24.5891 7.45891C24.6245 7.39875 24.6421 7.3298 24.64 7.26004C24.6428 7.18881 24.6256 7.11822 24.5902 7.05633C24.5549 6.99444 24.5028 6.94374 24.44 6.91003L16.31 2.21003C16.2297 2.16587 16.1412 2.13864 16.05 2.13003V2.13003Z" fill="#394762"/>
<path d="M19.4 29.7301C18.7635 29.7301 18.153 29.4772 17.7029 29.0271C17.2529 28.5771 17 27.9666 17 27.3301V18.0001C17.0013 17.5442 17.122 17.0966 17.3501 16.7018C17.5782 16.307 17.9057 15.9789 18.3 15.7501L26.44 11.0501C26.8068 10.8476 27.2203 10.7446 27.6392 10.7514C28.0582 10.7583 28.468 10.8746 28.828 11.089C29.1881 11.3034 29.4857 11.6083 29.6913 11.9734C29.8969 12.3385 30.0033 12.7511 30 13.1701V22.4601C29.9997 22.9162 29.8794 23.3642 29.6512 23.7591C29.4231 24.1541 29.095 24.482 28.7 24.7101L20.56 29.4101C20.2073 29.6148 19.8078 29.725 19.4 29.7301V29.7301ZM27.64 12.7301C27.5701 12.7285 27.501 12.7458 27.44 12.7801L19.3 17.4801C19.2087 17.5328 19.133 17.6086 19.0803 17.6999C19.0276 17.7912 18.9999 17.8947 19 18.0001V27.2901C19.0004 27.3607 19.019 27.4301 19.054 27.4914C19.0891 27.5527 19.1393 27.6039 19.2 27.6401C19.2608 27.6752 19.3298 27.6937 19.4 27.6937C19.4702 27.6937 19.5392 27.6752 19.6 27.6401L27.74 23.0001C27.8299 22.9459 27.9047 22.8698 27.9571 22.7788C28.0096 22.6879 28.0381 22.5851 28.04 22.4801V13.1701C28.0396 13.0995 28.021 13.0301 27.986 12.9688C27.9509 12.9075 27.9007 12.8563 27.84 12.8201C27.7772 12.7905 27.7093 12.7735 27.64 12.7701V12.7301Z" fill="#394762"/>
</svg>
